X: 101948
T: Jolly Plumber
S: "Roche Collection of Traditional Irish Music" [III/24/78]
L: 1/8
M: 4/4
R: reel
K: Ador
dc |: A2 Gc AGFD | A2 Gc Addc | (3ABc Gc AGFD | Adde fdcA :|
d2 gg agge | dgge fdcA | d2 gg agge | d2 de fdcA |
d2 gg agge | dgge f2 fg | afge fdec | dfec dcAG ||
